X: 27
T:Gubbapolska efter Johan Fredrik Gr\"onkvist
M:3/4
L:1/4
S:abc-users, John Chambers, 4/98
B:Svenska L\aatar (N\"arke) #2
N:learned from David Bastviken Oct 1996
N:* David plays this c both sharp and natural.
Z:John Chambers <jc@eddie.mit.edu>
Z:http://eddie.mit.edu/~jc/music/abc/Scand
K:D
|: A2 d>e d2 | d>"*"c A>B =c>d | e2 e>f e>d | dc c2 A2 :: f2 d>f de/f/ |
| g2 ef e>g | f2 d>f de/f/ | g2 ef e>g |  gf gb gf | (3ece d2- d2 :|
W:
W: From "Falaleiro" http://home.t-online.de/home/pheld/homepage.htm

